symbols/web/headset_mic/materialsymbolsrounded/headset_mic_wght200grad200fill1_20px.svg

<svg xmlns="http://www.w3.org/2000/svg" height="20" width="20"><path d="M10.729 18.562q-.271 0-.5-.218-.229-.219-.229-.511 0-.271.229-.5.229-.229.5-.229h4.625q.229 0 .375-.135.146-.136.146-.365v-.416h-1.187q-.855 0-1.417-.563-.563-.563-.563-1.417v-2.375q0-.833.563-1.395.562-.563 1.417-.563h1.187v-1q0-2.458-1.708-4.167Q12.458 3 10 3 7.542 3 5.833 4.708 4.125 6.417 4.125 8.875v1h1.187q.855 0 1.417.563.563.562.563 1.395v2.375q0 .854-.563 1.417-.562.563-1.417.563h-.666q-.854 0-1.417-.563-.562-.563-.562-1.417V8.875q0-1.521.573-2.865.572-1.343 1.562-2.333.99-.989 2.333-1.562Q8.479 1.542 10 1.542q1.521 0 2.865.573 1.343.573 2.333 1.562.99.99 1.562 2.333.573 1.344.573 2.865v7.729q0 .834-.562 1.396-.563.562-1.417.562Z"/></svg>

<svg xmlns="http://www.w3.org/2000/svg" height="20" width="20"><path d="M10.729 18.562Q10.458 18.562 10.229 18.344Q10 18.125 10 17.833Q10 17.562 10.229 17.333Q10.458 17.104 10.729 17.104H15.354Q15.583 17.104 15.729 16.969Q15.875 16.833 15.875 16.604V16.188H14.688Q13.833 16.188 13.271 15.625Q12.708 15.062 12.708 14.208V11.833Q12.708 11 13.271 10.438Q13.833 9.875 14.688 9.875H15.875V8.875Q15.875 6.417 14.167 4.708Q12.458 3 10 3Q7.542 3 5.833 4.708Q4.125 6.417 4.125 8.875V9.875H5.312Q6.167 9.875 6.729 10.438Q7.292 11 7.292 11.833V14.208Q7.292 15.062 6.729 15.625Q6.167 16.188 5.312 16.188H4.646Q3.792 16.188 3.229 15.625Q2.667 15.062 2.667 14.208V8.875Q2.667 7.354 3.24 6.01Q3.812 4.667 4.802 3.677Q5.792 2.688 7.135 2.115Q8.479 1.542 10 1.542Q11.521 1.542 12.865 2.115Q14.208 2.688 15.198 3.677Q16.188 4.667 16.76 6.01Q17.333 7.354 17.333 8.875V16.604Q17.333 17.438 16.771 18Q16.208 18.562 15.354 18.562Z"/></svg>
